X: 44
T:Fare
R:
C:Pat Sha
S:Community Dance Manual, Book 6
Z: goes 
M:3/4
K:A
P:A
e2|\
  a3g fe|   c2e4|A2A2B2|  c4e2|\
a3g fe| c2e4|cBA2c2| B4e2|
  a3g fe| e2c4| f3e dc|c2A4|\
 d3c BA|B3A GF|E2c2B2|  A4  ||
P:B
E2|\
  A3B cB|  A2E4      |   B3c dc|B2E4  |\
  c3d ed|c2A2de    |f3e dc|B4E2  |
  c3d ed|c2A4      |   d3e fe|d2B2cd|\
e3f ge|a2A2d2| c3dB2|A4     ||
